X: 57
T: Wouters Hanter dro
C: Wouter Kuyper
M: 3/2
L: 1/8
R: hanter dro
K: Am
V: 1
|: "Am"c2 AB "C"c3e "G"dcBA | "Am"c2 AB "F"c2 d2 "G"B2 G2 | "Am"c2 AB "C"c3e "G"dcBA | "Am"c2 AB "F"c2 e2 "G"B4 :|
|: "C"e2 cd e3g "Dm"fedc | "F"A2 Bc "G"d2 cd "C"e2 c2 | "C"e2 cd e3g "Dm"fedc | "F"A2 Bc "G"d2 e2 B4 :|
V: 2
|: AG E2-E3c BA d2| AG F4 GA G2 E2 | AG E2-E3c BA d2| AG F4 GA G4 :|
|: c2 AB c2 Ge dcBA | F2 GA G2 AB c2 A2 | G2 AB c2 Ge dcBA | F2 GA G2 A2 G4 :|

